!!!SOCIAL_FUNCTION:	songs of dances presented at makah day celebrations
!!!PDT:	1939
!!!OTL: No_64_Homatsa_Song_(a).krn
!!!LANG: Non-Tone
!!!LING_GROUP: Wakashan
!!!REG: Pacific Northwest
**kern	**kern
*staff2	*staff1
=1-	=1-
*clefF4	*clefF4
*k[b-e-a-d-]	*k[b-e-a-d-]
*M3/8	*M3/8
8GG/L	8e-\
8GG/J	4e-^\
8r	.
=2	=2
8GG/L	8e-\L
8GG/	16c\Jk
.	16r
8GG/J	8e-\
=3||	=3||
*M2/4	*M2/4
8r	4.e-\
8GG/	.
8GG/L	.
8GG/J	8c\
=4||	=4||
*M3/4	*M3/4
8r	2c\
8GG/	.
8GG/L	.
8GG/J	.
4r	8r
.	8A-\
=5||	=5||
*M2/4	*M2/4
8GG/L	4c\
8GG/J	.
8GG/	8c\L
8r	8c\J
=6||	=6||
*M3/4	*M3/4
8GG/L	4c\
8GG/J	.
8GG/	8B-\L
8r	8B-\J
8GG/L	8B-\
8GG/J	8r
=7	=7
8GG/	12A-\L
.	12B-\
8r	.
.	12A-\J
8GG/L	8A-\
8GG/J	8r
8r	8r
8GG/	8E-\
=8	=8
8GG/	8A-\
8r	8r
8GG/L	8A-\
8GG/J	8r
4r	4r
=9||	=9||
*M2/4	*M2/4
8GG/L	4c\
8GG/J	.
8GG/	8c\L
8r	8c\J
=10	=10
8GG/L	8Bn\L
8GG/J	8c\J
8GG/	8B-\
8r	8r
=11	=11
8GG/L	4A-\
8GG/J	.
8GG/L	16A-\
.	16r
8GG/J	8E-\
=12	=12
8GG/L	8A-\L
8GG/J	8A-\J
8r	4r
8GG/	.
=13||	=13||
*M3/4	*M3/4
8GG/L	2r
8GG/J	.
8GG/L	.
8GG/J	.
8GG/L	8.c\L
8GG/J	.
.	16e-\Jk
=14	=14
8GG/L	2e-\
8GG/J	.
8GG/L	.
8GG/J	.
8GG/L	8e-\
8GG/J	8r
=15||	=15||
*M3/8	*M3/8
8GG/L	8e-\L
8GG/	16c\Jk
.	16r
8GG/J	8e-\
=16||	=16||
*M2/4	*M2/4
8GG/L	4e-\
8GG/J	.
8GG/L	8c\L
8GG/J	8c\J
=17||	=17||
*M3/4	*M3/4
8GG/L	2c\
8GG/J	.
8GG/L	.
8GG/J	.
8GG/L	8r
8GG/J	8A-\
=18||	=18||
*M2/4	*M2/4
8GG/L	4c\
8GG/J	.
8GG/L	8c\L
8GG/J	8c\J
=19||	=19||
*M3/4	*M3/4
8GG/L	4c\
8GG/J	.
8GG/L	8B-\L
8GG/J	8B-\J
8GG/L	8B-\
8GG/J	8r
=20	=20
8GG/L	12A-\L
.	12B-\
8GG/J	.
.	12A-\J
8GG/L	8A-\
8GG/J	8r
8GG/L	8r
8GG/J	8E-\
=21||	=21||
*M2/4	*M2/4
8GG/L	8A-\
8GG/J	8r
8GG/L	8A-\
8GG/J	8r
=22	=22
8GG/L	2r
8GG/J	.
8GG/L	.
8GG/J	.
=23	=23
8GG/L	4c\
8GG/J	.
8GG/	8c\L
8r	8c\J
=24	=24
8GG/L	8B-\L
8GG/J	8c\J
8GG/	8B-\
8r	8r
=25	=25
8GG/L	4A-\
8GG/J	.
8GG/L	16A-\
.	16r
8GG/J	8E-\
=26||	=26||
*M3/4	*M3/4
8GG/L	8A-\L
8GG/J	8A-\J
8GG/L	4r
8GG/J	.
8GG/L	8A-\L
8GG/J	16B-\L
.	16c\JJ
=27||	=27||
*M2/4	*M2/4
8GG/L	4c\
8GG/J	.
8GG/L	8c\
8GG/J	8r
=28	=28
8GG/L	4c\
8GG/J	.
8GG/L	8c\L
8GG/J	8Bn\J
=29	=29
8GG/L	[2c\
8GG/J	.
8GG/L	.
8GG/J	.
=30||	=30||
*M3/4	*M3/4
8GG/L	2c\]
8GG/J	.
8GG/L	.
8GG/J	.
8GG/L	8r
8GG/J	8c\
=31	=31
8GG/L	2.e-\
8GG/J	.
8GG/L	.
8GG/J	.
8GG/L	.
8GG/J	.
=32!|:	=32!|:
*M2/4	*M2/4
8GG/L	4e-\
8GG/J	.
8GG/L	8.e-\L
8GG/J	.
.	16e-\Jk
=33	=33
8GG/L	16e-\LK
.	[8.c\J
8GG/J	.
8GG/L	4c\]
8GG/J	.
=34	=34
8GG/L	16c\LK
.	[8.B-\J
8GG/J	.
8GG/L	8B-\]
8GG/J	8r
=35	=35
8GG/L	8.e-\L
8GG/J	.
.	16e-\Jk
8GG/L	16e-\LK
.	8.c\J
8GG/J	.
=36	=36
8GG/L	4e-\
8GG/J	.
8GG/L	8f\L
8GG/J	8e-\J
=37	=37
8GG/L	4c\
8GG/J	.
8GG/L	8r
8GG/J	8e-\
=38	=38
8GG/L	8e-\L
8GG/J	8e-\J
8GG/L	16e-\LL
.	16B-\JJ
8GG/J	8r
=39	=39
8GG/L	4e-\
8GG/J	.
8GG/	8e-\L
8r	8e-\J
=40	=40
8GG/L	4.c\
8GG/J	.
8GG/	.
8r	8Bn\
=41	=41
8GG/L	2c\
8GG/J	.
8GG/	.
8r	.
=42	=42
8GG/L	8c\L
8GG/J	8B-\J
8GG/	8r
8r	8c\
=43	=43
8GG/L	8B-\L
8GG/J	8c\J
8GG/	16B-\
.	16r
8r	8A-\
=44	=44
!!pagebreak:default
8GG/L	8c\L
8GG/J	8B-\J
8GG/	8B-\
8r	8r
=45	=45
8GG/L	4A-\
8GG/J	.
8GG/L	16A-\
.	16r
8GG/J	8E-\
=46||	=46||
*M3/4	*M3/4
8GG/L	8A-\L
8GG/J	8A-\J
4r	4r
8GG/L	8c\L
8GG/J	16c\L
.	16c\JJ
=47||	=47||
*M2/4	*M2/4
8GG/L	4c\
8GG/J	.
8GG/	8c\
8r	8r
=48	=48
8GG/L	8c\L
8GG/J	8B-\J
8GG/L	8c\L
8GG/J	8c\J
=49||	=49||
*M3/4	*M3/4
8GG/L	2c\
8GG/J	.
8GG/L	.
8GG/J	.
8GG/L	8r
8GG/J	8c\
=50||	=50||
*M2/4	*M2/4
8r	[2e-\
8GG/	.
8GG/L	.
8GG/J	.
=51	=51
4r	2e-\]
4r	.
==:|!	==:|!
*-	*-
